X:6
T:Fhuair mi ordugh tha taitneach
Z:Jack Campin, http://www.campin.me.uk/
B:Captain Eoghan Anderson: Measan Milis as an Lios (The Sweet Lapdog of Lismore), 1925
F:http://www.campin.me.uk/Music/Lismore.abc
I:last edit 17-12-2013
N:book has the second note an octave higher
M:3/4
L:1/4
Q:1/4=100
K:A
A/F/|E E A|F E A   |B    c B|AE
F/E/|D E F|F E d   |c/B/ A c|B2
c/d/|d d c|B A B/c/|B    G B|AE
F/E/|D E A|F E A/B/|c    d B|A2|]

